Origami/64x64/apps/gcstar.svg

<svg width="64" height="64" version="1" xmlns="http://www.w3.org/2000/svg">
 <path d="m4.0507997 32.000415c-0.0118 0.333995-0.050799 0.66199-0.050799 0.999985-3e-7 15.511779 12.487821 27.9996 27.999599 27.9996s27.9996-12.487821 27.9996-27.9996c0-0.337675-0.03904-0.66527-0.05078-0.999985-0.527992 15.041785-12.775817 26.999614-27.9496 26.999614-15.174183 0-27.421608-11.957829-27.9496-26.999614z" style="opacity:.2"/>
 <rect transform="matrix(0,-1,-1,0,0,0)" x="-60" y="-60" width="55.999" height="55.999" rx="28" ry="28" style="fill:#1d81e8"/>
 <path d="m31.9996 13.000686a19.999714 19.999714 0 0 0 -19.999714 19.999714 19.999714 19.999714 0 0 0 19.999714 19.999714 19.999714 19.999714 0 0 0 19.999714 -19.999714 19.999714 19.999714 0 0 0 -19.999714 -19.999714zm-9.554463 13.9998a6.0531134 4.9345294 76.77 0 1 5.316324 4.691333 6.0531134 4.9345294 76.77 0 1 -3.230354 7.163898 6.0531134 4.9345294 76.77 0 1 -6.29371 -4.547935 6.0531134 4.9345294 76.77 0 1 3.229754 -7.163898 6.0531134 4.9345294 76.77 0 1 0.977986 -0.143998zm19.109126 0a4.9345294 6.0531134 13.23 0 1 0.976546 0.144538 4.9345294 6.0531134 13.23 0 1 3.230354 7.163898 4.9345294 6.0531134 13.23 0 1 -6.29291 4.546735 4.9345294 6.0531134 13.23 0 1 -3.231954 -7.163898 4.9345294 6.0531134 13.23 0 1 5.315924 -4.691933z" style="opacity:.2"/>
 <path d="m31.9996 12.000715a19.999714 19.999714 0 0 0 -19.999714 19.999714 19.999714 19.999714 0 0 0 19.999714 19.999714 19.999714 19.999714 0 0 0 19.999714 -19.999714 19.999714 19.999714 0 0 0 -19.999714 -19.999714zm-9.553863 13.9998a6.0531134 4.9345294 76.77 0 1 5.315924 4.691933 6.0531134 4.9345294 76.77 0 1 -3.229954 7.163897 6.0531134 4.9345294 76.77 0 1 -6.29371 -4.547935 6.0531134 4.9345294 76.77 0 1 3.229754 -7.163897 6.0531134 4.9345294 76.77 0 1 0.977986 -0.143998zm19.107726 0a4.9345294 6.0531134 13.23 0 1 0.977986 0.143998 4.9345294 6.0531134 13.23 0 1 3.229954 7.163897 4.9345294 6.0531134 13.23 0 1 -6.29391 4.547935 4.9345294 6.0531134 13.23 0 1 -3.229954 -7.163897 4.9345294 6.0531134 13.23 0 1 5.315924 -4.691933z" style="fill:#ffc05b"/>
 <path d="M 32 4 C 16.488222 4 4 16.488222 4 32 C 4 32.113554 4.0112846 32.224034 4.0175781 32.335938 C 4.3691163 17.134398 16.710946 5 32 5 C 47.289054 5 59.630884 17.134398 59.982422 32.335938 C 59.988797 32.224034 60 32.113554 60 32 C 60 16.488222 47.511778 4 32 4 z" style="fill:#ffffff;opacity:.2"/>
</svg>

<svg xmlns="http://www.w3.org/2000/svg" width="64" height="64" version="1">
 <path style="opacity:0.2" d="m 4.0507997,32.000415 c -0.0118,0.333995 -0.050799,0.66199 -0.050799,0.999985 C 4.0000004,48.512179 16.487822,61 31.9996,61 47.511378,61 59.9992,48.512179 59.9992,33.0004 c 0,-0.337675 -0.03904,-0.66527 -0.05078,-0.999985 C 59.420428,47.0422 47.172603,59.000029 31.99882,59.000029 16.824637,59.000029 4.5772122,47.0422 4.0492197,32.000415 Z"/>
 <rect style="fill:#1d81e8" width="55.999" height="55.999" x="-60" y="-60" rx="28" ry="28" transform="matrix(0,-1,-1,0,0,0)"/>
 <path style="opacity:0.2" d="M 31.9996,13.000686 A 19.999714,19.999714 0 0 0 11.999886,33.0004 19.999714,19.999714 0 0 0 31.9996,53.000114 19.999714,19.999714 0 0 0 51.999314,33.0004 19.999714,19.999714 0 0 0 31.9996,13.000686 Z m -9.554463,13.9998 a 6.0531134,4.9345294 76.77 0 1 5.316324,4.691333 6.0531134,4.9345294 76.77 0 1 -3.230354,7.163898 6.0531134,4.9345294 76.77 0 1 -6.29371,-4.547935 6.0531134,4.9345294 76.77 0 1 3.229754,-7.163898 6.0531134,4.9345294 76.77 0 1 0.977986,-0.143998 z m 19.109126,0 a 4.9345294,6.0531134 13.23 0 1 0.976546,0.144538 4.9345294,6.0531134 13.23 0 1 3.230354,7.163898 4.9345294,6.0531134 13.23 0 1 -6.29291,4.546735 4.9345294,6.0531134 13.23 0 1 -3.231954,-7.163898 4.9345294,6.0531134 13.23 0 1 5.315924,-4.691933 z"/>
 <path style="fill:#ffc05b" d="M 31.9996,12.000715 A 19.999714,19.999714 0 0 0 11.999886,32.000429 19.999714,19.999714 0 0 0 31.9996,52.000143 19.999714,19.999714 0 0 0 51.999314,32.000429 19.999714,19.999714 0 0 0 31.9996,12.000715 Z m -9.553863,13.9998 a 6.0531134,4.9345294 76.77 0 1 5.315924,4.691933 6.0531134,4.9345294 76.77 0 1 -3.229954,7.163897 6.0531134,4.9345294 76.77 0 1 -6.29371,-4.547935 6.0531134,4.9345294 76.77 0 1 3.229754,-7.163897 6.0531134,4.9345294 76.77 0 1 0.977986,-0.143998 z m 19.107726,0 a 4.9345294,6.0531134 13.23 0 1 0.977986,0.143998 4.9345294,6.0531134 13.23 0 1 3.229954,7.163897 4.9345294,6.0531134 13.23 0 1 -6.29391,4.547935 4.9345294,6.0531134 13.23 0 1 -3.229954,-7.163897 4.9345294,6.0531134 13.23 0 1 5.315924,-4.691933 z"/>
 <path style="opacity:0.2;fill:#ffffff" d="M 32 4 C 16.488222 4 4 16.488222 4 32 C 4 32.113554 4.0112846 32.224034 4.0175781 32.335938 C 4.3691163 17.134398 16.710946 5 32 5 C 47.289054 5 59.630884 17.134398 59.982422 32.335938 C 59.988797 32.224034 60 32.113554 60 32 C 60 16.488222 47.511778 4 32 4 z"/>
</svg>
